X:1
T:Title
%%score { 1 | 2 }
L:1/8
Q:1/4=80
M:4/8
K:Eb
V:1 treble nm="Grand Piano"
V:2 bass 
V:1
 EG[GB][Ge] | [EAc][EAe][EGB]G | EGBc | BG [DF]2 | EG[GB][Ge] | [Ac][Ae][GB]G | EFG>[CEA] | %7
w: J.~H.~Ruebush * * *|||||||
 [B,EG][A,DF] [G,E]2 | [B,EG][GB][GB][GB] | ccBG | G[GB]Bc | BG [DF]2 | EG[GB][Ge] | %13
w: ||||||
 [Ac][Ae][GB]G | EFG>[CEA] |[M:6/4] [B,EG][A,DF] .[G,E]4 z6 |] %16
w: |||
V:2
 [E,G,][E,B,E][E,B,][E,B,] | A,,C,E,[E,B,E] | [E,G,][E,B,E][G,B,E][A,E] | [G,B,E][E,B,E] [B,,B,]2 | %4
 [E,G,][E,B,E][E,E][E,B,] | [E,E][E,C][E,E][E,B,E] | [E,G,][E,A,E][E,B,E]>A,, | B,,B,, E,2 | %8
 E,[E,E][E,E][E,E] | [A,E][A,E][G,E][E,B,E] | [E,B,E][E,B,][E,G,E][A,E] | [G,B,E][E,B,E] [B,,B,]2 | %12
 [E,G,][E,B,E][E,E][E,B,] | [E,E][E,C][E,E][E,B,E] | [E,G,][E,A,E][E,B,E]>A,, | %15
[M:6/4] B,,B,, .E,4 z6 |] %16

